!!!!SEGMENT: pl-wn--mus-iii-161-470--001_wieniawski-henryk--deux-mazurkas-caracteristiques-op-19-obertass.krn
!!!cenid: 18xx:3806
!!!COM: Wieniawski, Henryk
!!!COM-rismID: pe137176
!!!CDT: 1835/07/10-1880/03/31
!!!CNT:
!!!GTL: Deux mazurkas caractéristiques op. 19
!!!OTL: Obertass
!!!PDT:
!!!AGN:
!!!SMS-siglum: PL-Wn
!!!SMS-shelfmark: Mus.III.161.470
!!!SMS-shelfwork: 001 G
!!!SMS-variant:
!!!SMS-altvar:
!!!NIFC-rismSourceID:
!!!NIFC-islandoraID:
!!!URL-pdf-islandora:
!!!URL-scan: https://polona.pl/item/deux-mazurkas-caracteristiques-op-19,MTA4MDQwOTMw/0 @EN{Scan on Polona} @PL{Skany w portalu Polona}
!!!ONB-nifc:
!!!AIN: 1 piano 1 violn
!!!key: G
**kern	**kern	**dynam	**kern	**fing	**dynam
!	!	!	!LO:MO:mod=*null:null	!	!
*	*	*	*scale:80%	*	*
*part2	*part2	*part2	*part1	*part1	*part1
*staff3	*staff2	*	*staff1	*	*
*I"Piano.	*I"Piano.	*	*I"Violon.	*	*
*mI"Pianoforte	*mI"Pianoforte	*	*mI"Violino	*	*
*Ipiano	*Ipiano	*	*Ivioln	*	*
*ICklav	*ICklav	*	*ICstr	*	*
*IGacmp	*IGacmp	*	*IGsolo	*	*
*clefF4	*clefG2	*	*clefG2	*	*
*k[f#]	*k[f#]	*	*k[f#]	*	*
*G:	*G:	*	*G:	*	*
*M3/4	*M3/4	*	*M3/4	*	*
=1	=1	=1	=1	=1	=1
*	*	*	*Xtuplet	*	*
!	!	!	!LO:TUP:a:problem:klamra łukowa	!	!LO:DY:rj
!	!	!	!LO:TX:a:t=Mazurka. \nI.:mod=	!	!
4G 4D 4GG\	4g 4d 4B/	ff	12ggL 12b 12d 12G^\	.	ff
.	.	.	12aa 12b\	.	.
.	.	.	12bbJ 12b\	.	.
2A 2D 2GG^\	2dd 2f# 2c^/	.	4aa 4cc^\	.	.
.	.	.	8eeL 8cc^\	.	sf
.	.	.	8ff#J 8cc\	.	.
=2	=2	=2	=2	=2	=2
!	!	!	!LO:TUP:a:problem:klamra łukowa	!	!
4G 4D 4GG\	4g 4d 4B/	.	12ggL 12b 12d 12G^\	.	.
.	.	.	12aa 12b\	.	.
.	.	.	12bbJ 12b\	.	.
2A 2D 2GG^\	2dd 2f# 2c^/	.	4aa 4cc^\	.	.
.	.	.	8eeL 8cc^\	.	sf
.	.	.	8ff#J 8cc\	.	.
=3	=3	=3	=3	=3	=3
!	!	!	!LO:TUP:a:problem:klamra łukowa	!	!
4G 4D 4GG\	4g 4d 4B/	.	12ggL 12b 12d 12G^\	.	.
.	.	.	12aa 12b\	.	.
.	.	.	12bbJ 12b\	.	.
2A 2D 2GG^\	2dd 2f# 2c^/	.	4aa 4cc^\	.	.
.	.	.	8eeL 8cc^\	.	sf
.	.	.	8ff#J 8cc\	.	.
=4	=4	=4	=4	=4	=4
!	!	!	!LO:TUP:a:problem:klamra łukowa	!	!
[2G [2D [2GG\	[2g [>2d [2B/	.	12ggL 12b 12d 12G\	.	.
.	.	.	12aa 12b\	.	.
.	.	.	12bbJ 12b\	.	.
!	!	!	!LO:MO:mod=!LO&colon;TX&colon;a&colon;i&colon;t=vibr.	!	!
!	!	!	!LO:TX:a:t=vibr.	!	!
.	.	.	2gg 2b^\	.	.
8G] 8D] 8GG\]	8g] 8d] 8B/]	.	.	.	.
8r	8r	.	.	.	.
=5	=5	=5	=5	=5	=5
!	!	!	!LO:TUP:b:problem:klamra łukowa	!	!LO:DY:rj
4D 4GG\	4B< 4G</	p	(12dL 12G^>/	.	p
.	.	.	12d 12A/	.	.
.	.	.	12dJ 12B/	.	.
2D 2GG\	2c< 2F#</	.	4d [[4A/	.	.
.	.	.	8.d^>/L 8.d	.	.
.	.	.	16dJk 16A/]])	.	.
=6	=6	=6	=6	=6	=6
!	!	!	!LO:TUP:b:problem:klamra łukowa	!	!
4D 4GG\	4B< 4G</	.	(12dL 12G^>/	.	.
.	.	.	12d 12A/	.	.
.	.	.	12dJ 12B/	.	.
2D 2GG\	2c< 2F#</	.	4d [[4A/	.	.
.	.	.	8.d^>/L 8.d	.	.
.	.	.	16dJk 16A/]])	.	.
!!LO:LB:g=original
=7	=7	=7	=7	=7	=7
!	!	!	!LO:TUP:b:problem:klamra łukowa	!	!
4D 4GG\	4B< 4G</	.	(12dL 12G/	.	.
.	.	.	12d 12A/	.	.
.	.	.	12dJ 12B/	.	.
2D 2GG\	2c< 2F#</	.	4d [[4A/	.	.
.	.	.	8.d^>/L 8.d	.	.
.	.	.	16dJk 16A/]])	.	.
=8	=8	=8	=8	=8	=8
!	!	!	!LO:TUP:b:problem:klamra łukowa	!	!
4D 4GG\	4B< 4G</	.	(12dL 12G/	.	.
.	.	.	12d 12A/	.	.
.	.	.	12dJ 12B/	.	.
[2D\	[2d [2A/	p	2d 2A^>/)	.	.
=9	=9	=9	=9	=9	=9
!	!	!	!LO:TUP:b:problem:klamra łukowa	!	!
4D\]	4d] 4A/]	.	(12aL 12d/	.	<
.	.	.	12e/	.	.
.	.	.	12f#/J	.	.
[2A [2D\	[2a [2d/	<	2d^>/)	.	.
=10	=10	=10	=10	=10	=10
!	!	!	!LO:TUP:a:problem:klamra łukowa	!	!
.	.	.	8qd/	.	.
4A] 4D\]	4a] 4d/]	.	(12dd\L	.	.
.	.	.	12ee\	.	.
.	.	.	12ff#\J	.	.
*clefG2	*	*	*	*	*
[2a [2d/	[2aa [2dd\	.	2dd\)	.	[
=11	=11	=11	=11	=11	=11
!	!	!	!LO:TUP:a:problem:klamra łukowa	!	!
4a] 4d/]	4aa] 4dd\]	.	12ddd\L	.	.
.	.	.	12eee\	.	.
.	.	.	12fff#\J	.	.
!	!	!LO:MO:mod=[[	!	!	!
[2aa [2dd\	[2aaa [2ddd\	[	2ddd\	.	.
=12	=12	=12	=12	=12	=12
!	!	!	!	!	!LO:MO:mod=.
.	.	.	(8qccc#X/	.	f
!	!	!	!	!	!LO:MO:null:mod=f
4aa] 4dd\]	4aaa] 4ddd\]	.	4ddd\)	.	.
.	.	.	(8qccc#/	.	.
4r	4r	.	4ddd\)	.	.
.	.	.	(8qccc#/	.	.
4r	4r	.	4ddd\)	.	.
=13	=13	=13	=13	=13	=13
.	.	.	(8qccc#X/	.	.
2.r	2.r	.	4ddd\)	.	.
.	.	.	(8qccc#/	.	.
.	.	.	4ddd\)	.	.
.	.	.	(8qccc#/	.	.
.	.	.	8ddd\L)	.	.
.	.	.	8ccc#y\J	.	.
!!LO:LB:g=original
=14	=14	=14	=14	=14	=14
!	!	!	!	!	!LO:MO:mod=.
.	.	.	(8qccc#X/	.	ff >
!	!	!	!	!	!LO:MO:null:mod=ff > ]]
2.r	2.r	.	[2.ddd^<T\)	.	.
=15	=15	=15	=15	=15	=15
!	!	!	!	!	!LO:MO:mod=f
2.r	2.r	.	2.ddd^<T\]	.	] f
=16	=16	=16	=16	=16	=16
2.r	2.r	.	([2.dddT\	.	mf
=17	=17	=17	=17	=17	=17
2.r;	2.r;	.	(<<2dddT\]	.	p
.	.	.	8qqccc#X/)	.	.
!	!	!	!LO:TX:a:i:t= :mod=glissez.	!	!
.	.	.	4ddd;\	.	pp
*clefF4	*	*	*	*	*
=18	=18	=18	=18	=18	=18
!	!	!	!LO:TX:a:B:rj:t=glissez.:mod=	!	!
(2D 2GG^/	2.d 2.c/	p	12aa\L	.	.
.	.	.	12bb\	.	.
.	.	.	12cccn\J	.	.
.	.	.	8aa+<\)	.	.
.	.	.	8r	.	.
4D 4GG'/)	.	.	8.ee\L	.	.
.	.	.	16ff#\Jk	.	.
=19	=19	=19	=19	=19	=19
.	.	.	(16qqgg/LL	.	.
.	.	.	16qqaa/JJ)	.	.
(2D 2GG^/	2.d 2.B/	.	8.gg\L	.	.
.	.	.	16ff#\Jk	.	.
.	.	.	(4gg\	.	.
4D 4GG'/)	.	.	4dd\)	.	.
=20	=20	=20	=20	=20	=20
.	.	.	(>>(>8qa/	.	.
(2D 2GG^/	2.d 2.c/	.	12aa\L)	.	.
.	.	.	12bb\	.	.
.	.	.	12ccc\J	.	.
.	.	.	8aa+<\)	.	.
.	.	.	8r	.	.
4D 4GG'/)	.	.	8.ee\L	.	.
.	.	.	16ff#\Jk	.	.
=21	=21	=21	=21	=21	=21
.	.	.	(16qqgg/LL	.	.
.	.	.	16qqaa/JJ)	.	.
(2D 2GG^/	2.d 2.B/	.	8.gg\L	.	.
.	.	.	16ff#\Jk	.	.
.	.	.	2gg\	.	.
4D 4GG'/)	.	.	.	.	.
!!LO:PB:g=original
=22	=22	=22	=22	=22	=22
*^	*	*	*	*	*
.	.	.	.	(>>(>8qa/	.	.
2.A/	(2C\	(4a 4e/	.	12aa\L)	.	.
.	.	.	.	12bb\	.	.
.	.	.	.	12ccc\J	.	.
!	!	!	!	!LO:SIC:s=8aa+	!	!
.	.	8ee\)	.	8aa\)	.	.
.	.	8r	.	8r	.	.
.	4D\)	4d 4c/	.	8.ee\L	.	.
.	.	.	.	16ff#\Jk	.	.
*v	*v	*	*	*	*	*
=23	=23	=23	=23	=23	=23
.	.	.	(16qqgg/LL	.	.
.	.	.	16qqaa/JJ)	.	.
2G\	2d 2B/	.	8.gg\L	.	.
.	.	.	16ff#\Jk	.	.
.	.	.	(4gg\	.	.
(8qC#X/	.	.	.	.	.
4D\)	4d 4B/	.	4dd\)	.	.
=24	=24	=24	=24	=24	=24
*^	*	*	*	*	*
.	.	.	.	(>>(>8qa/	.	.
2.A/	(2Cn\	(4e/	.	12aa\L)	.	.
.	.	.	.	12bb\	.	.
.	.	.	.	12ccc\J	.	.
.	.	8gg\)	.	8aa+<\)	.	.
.	.	8r	.	8r	.	.
.	4D\)	4d 4c/	.	8.ee\L	.	.
.	.	.	.	16ff#\Jk	.	.
*v	*v	*	*	*	*	*
=25	=25	=25	=25	=25	=25
.	.	.	(16qqff#/LL	.	.
.	.	.	16qqaa/JJ	.	.
4G\	4d 4B/	.	8.gg\L)	.	.
.	.	.	16ff#\Jk	.	.
4r	8.r	.	4.gg\	.	.
.	16f#X/	.	.	.	.
!	!LO:SIC:s=[4g 4B	!	!	!	!
4GG/	[4g 4Bn/	.	.	.	.
.	.	.	8ff#\	.	.
=26	=26	=26	=26	=26	=26
.	.	.	(16qqff#/LL	.	.
.	.	.	16qqaa/JJ	.	.
4AA/	4g] 4c/	.	8.gg\L)	.	.
.	.	.	16ff#\Jk	.	.
4r	8.r	.	4.gg\	.	.
.	16f#X/	.	.	.	.
(4AA#X/	([4g 4c#X/	.	.	.	.
.	.	.	8ff#\	.	.
=27	=27	=27	=27	=27	=27
*	*^	*	*	*	*
.	.	.	.	(16qqff#/LL	.	.
.	.	.	.	16qqaa/JJ	.	.
4BB/	2.g/]	4d\	.	8.gg\L)	.	.
.	.	.	.	16ff#\Jk	.	.
.	.	.	.	(8qaa/	.	.
4C/	.	4e-X\	.	8.gg\L)	.	.
.	.	.	.	16ff#\Jk	.	.
.	.	.	.	(8qaa/	.	.
4C#X/)	.	4en\)	.	8.gg\L)	.	.
.	.	.	.	16ff#\Jk	.	.
*	*v	*v	*	*	*	*
!!LO:LB:g=original
=28	=28	=28	=28	=28	=28
.	.	.	(16qqff#/LL	.	.
.	.	.	16qqaa/JJ)	.	.
8D 8GG/	8g 8fn 8B/	.	8.gg\L	.	.
8r	8r	.	.	.	.
.	.	.	16ff#X\Jk	.	.
4r	4r	.	8ffn\L	.	.
.	.	.	8ee\	.	.
4r	4r	.	8ee-X\	.	.
.	.	.	8dd\J	.	.
=29	=29	=29	=29	=29	=29
!	!	!	!LO:MO:mod=!LO&colon;TX&colon;b&colon;i&colon;t=con grazia	!	!
!	!	!	!LO:TX:b:t=con grazia	!	!
2.C/	4r	.	8.cc\L	.	.
.	.	.	16dd\Jk	.	.
.	4g 4c 4G/	.	8.ee-X\L	.	.
.	.	.	16een\Jk	.	.
.	4g 4c 4G/	.	8.ffn\L	.	.
.	.	.	16ff#X\Jk	.	.
=30	=30	=30	=30	=30	=30
2.E\	4r	.	8.gg\L	.	.
.	.	.	16gg\Jk	.	.
.	4cc 4g 4c/	.	4.eeeo\	.	.
.	4cc 4g#X 4c/	.	.	.	.
.	.	.	8ddd\	.	.
=31	=31	=31	=31	=31	=31
.	.	.	16qqccc/LL	.	.
.	.	.	16qqddd/JJ	.	.
(2Fn\	4r	.	8.ccc\L	.	.
.	.	.	16bb\Jk	.	.
.	4cc 4a 4c/	.	(4.ccc\	.	.
4A\)	4ffn 4cc 4fn/	.	.	.	.
.	.	.	8aa\	.	.
=32	=32	=32	=32	=32	=32
8c\	8ee 8cc 8g\	.	8gg\)	.	.
8r	8r	.	8r	.	.
4r	4r	.	(4.aa^\	.	.
(4C#X/	4g 4e [4A/	.	.	.	.
.	.	.	8ee\)	.	.
=33	=33	=33	=33	=33	=33
8D\)	8fn 8d 8A/]	.	8ffn\	.	.
8r	8r	.	8r	.	.
4r	4r	.	(4.gg\	.	.
(4BBn/	(4f 4d 4G/	.	.	.	.
.	.	.	8dd\)	.	.
=34	=34	=34	=34	=34	=34
8C/)	8e 8c 8G/)	.	4.ee\	.	.
8r	8r	.	.	.	.
4r	4r	.	.	.	.
.	.	.	8dd#X\L	.	.
4r	4r	.	8ee\	.	.
.	.	.	8ff#X\J	.	.
!!LO:LB:g=original
=35	=35	=35	=35	=35	=35
*^	*	*	*	*	*
(4G/	2.BB\	[2.b [2.B/	.	8.gg\L	.	.
.	.	.	.	16ee\Jk	.	.
!	!	!	!	!LO:TX:t=P:problem:up-bow symbol inverted:global	!	!
2A/)	.	.	.	((4ff#v\	.	.
.	.	.	.	4dd#X\)	.	.
*v	*v	*	*	*	*	*
=36	=36	=36	=36	=36	=36
4G 4E\	4b] 4B/]	.	(12ee\L	.	.
!	!	!	!LO:SIC:s=8qgg	!	!
.	.	.	8qggn/	.	.
.	.	.	12ffn\	.	.
.	.	.	12ee\J	2	.
!!LO:TX:a:i:t= :mod=rit.
!	!LO:TX:b:i:t=rit.:mod=	!	!LO:TX:b:t=rit.:mod=	!	!
4r	4r	.	(4.ee\	3	.
4Fn 4GG/	4g 4B 4G/	p	.	.	.
.	.	.	8ddn\)))	3	.
=37	=37	=37	=37	=37	=37
4E 4C\	8g 8c 8G/	.	(8.ccu\L	.	.
.	8r	.	.	.	.
!	!	!	!LO:SIC:s=16dd'Jk)	!	!
.	.	.	16dd\Jk)	.	.
4e 4c 4G\	4r	.	8.ee-X\L	.	.
.	.	.	16een\Jk	.	.
4e 4c 4G\	4r	.	8.ffn\L	.	.
.	.	.	16ff#X\Jk	.	.
=38	=38	=38	=38	=38	=38
*^	*	*	*	*	*
!	!	!LO:TX:b:i:t= :mod=dolce	!	!	!	!
4r	4E\	4.ee\	.	8.gg\L	.	.
!	!	!LO:TX:b:i:t=dolce:mod=	!	!	!	!
.	.	.	.	16gg\Jk	.	.
2e 2c/	(4G\	.	.	4.eeeo\	.	.
.	.	(8dd\L	.	.	.	.
.	4G#X\)	8cc\	.	.	.	.
!	!	!	!	!LO:SIC:s=(8dddu	!	!
.	.	8b\J)	.	8dddu\	.	.
=39	=39	=39	=39	=39	=39	=39
.	.	(16qqa/LL	.	(16qqccc/LL	.	.
.	.	16qqb/JJ)	.	16qqddd/JJ)	.	.
!	!	!	!	!LO:SIC:s=8.cccL)	!	!
4r	(2Fn\	(8.a/L	.	8.ccc\L	.	.
.	.	16g#X/Jk)	.	16bb\Jk	.	.
2fn 2c/	.	(4a/	.	(4.cccv\	.	.
.	4A\)	4ffn\)	.	.	.	.
.	.	.	.	8aa\)	.	.
*v	*v	*	*	*	*	*
=40	=40	=40	=40	=40	=40
8e 8c\	8ee 8cc 8g\	.	8ggu\	.	.
8r	8r	.	8r	.	.
4r	4r	.	(4.aaaou<\	.	.
(4c#X\	4ee [4a 4g\	.	.	.	.
.	.	.	8ee\)	2	.
!!LO:LB:g=original
=41	=41	=41	=41	=41	=41
8d\)	8dd 8a] 8fn/	.	8ffn\	.	.
8r	8r	.	8r	.	.
4r	4r	.	(4.gg^\	.	.
(4B\	4dd [>4g 4f/	.	.	.	.
.	.	.	8dd\)	.	.
=42	=42	=42	=42	=42	=42
8c\)	8cc 8g] 8e/	.	4.ee\	.	.
8r	8r	.	.	.	.
4r	4r	.	.	.	.
.	.	.	8dd#X\L	.	.
4A\	4cc 4e/	.	8eeo\	.	.
.	.	.	8ff#\J	.	.
=43	=43	=43	=43	=43	=43
!	!LO:SIC:s=(2b 2e	!	!	!	!
2B\	(2b (2e/	.	12gg#X\L	.	.
!	!	!	!LO:TX:a:B:t=sul A_:dur=9e:ext=ud:problem:text with extention lines	!	!
.	.	.	12.b\	.	.
.	.	.	24gg#\Jk	.	.
!!LO:TX:a:i:t= :mod=rit.
!	!	!	!LO:TX:b:B:t=rit.:mod=	!	!
.	.	.	(4.gg#\	.	.
!	!LO:SIC:s=4d# 4A/)	!	!	!	!
!	!LO:TX:b:i:rj:t=rit.:mod=	!	!	!	!
4BB/	4d#X 4A/))	.	.	.	.
.	.	.	8ff#\)	.	.
=44	=44	=44	=44	=44	=44
2BB 2EE/	2g#X 2e 2B 2G#X/	.	2ee\	.	.
4r	4r	.	(4bbv\	.	f
=45	=45	=45	=45	=45	=45
4BB 4FF#X 4BBB/	4b 4d#X 4A/	f	8bbbo\L)	.	ff
.	.	.	16rff	.	.
.	.	.	(16bbbo\Jk	.	.
4r	8.r	.	[4bb\	.	.
.	16bb 16b\	.	.	.	.
8B\	4r	.	8bb\])	.	.
8r	.	.	8r	.	.
=46	=46	=46	=46	=46	=46
!	!LO:SIC:s=4g#X 4e 4B 4G#	!	!	!	!
4E 4BB 4EE/	4g#X 4e 4B 4G/	.	8gg#XL 8b 8e/	.	.
.	.	.	16r	.	.
.	.	.	(16gg#Jk 16b/	.	.
4r	8.r	.	8b 8e+</)	.	.
.	.	.	8r	.	.
.	16ee 16e/	.	.	.	.
8E\	4r	.	4r	.	.
8r	.	.	.	.	.
!!LO:PB:g=original
=47	=47	=47	=47	=47	=47
8A 8E 8AA\	8cc#X 8a 8e 8c#X/	.	4ee 4cc#X 4e 4A/	.	.
8r	8r	.	.	.	.
*clefG2	*	*	*	*	*
.	.	.	(>8qaa/	.	.
2a 2e 2c#X/	2eee 2aa 2ee\	.	8eeeeo\)	.	.
.	.	.	8r	.	.
!	!	!	!LO:MO:mod=!null:null	!	!
!	!	!	!LO:N:vis=8	!	!
.	.	.	8.ddd#Xu\L	.	.
.	.	.	(16ccc#X\Jk	.	.
*clefF4	*	*	*	*	*
=48	=48	=48	=48	=48	=48
*^	*	*	*	*	*
.	.	.	.	16qqbb/LL	.	.
.	.	.	.	16qqccc#X/JJ	.	.
8.B/L	[2E\	8.gg#XL 8.g#X\	.	8bb\L)	.	.
.	.	.	.	16r	.	.
16A#X/Jk	.	16ff##XJk 16f##X\	.	16aa#Xu\Jk	.	.
[4B/	.	[4gg# [4g#\	.	8bbv\	.	.
.	.	.	.	8r	.	.
8B/]	8E\]	8gg#] 8g#\]	.	4gg#X^\	.	.
8r	8r	8r	.	.	.	.
*v	*v	*	*	*	*	*
=49	=49	=49	=49	=49	=49
4BB 4FF#X 4BBB/	4b 4d#X 4A/	.	8bbL 8dd#X 8f# 8Bv/	.	.
.	.	.	16r	.	.
.	.	.	(16bbJk 16dd#u/	.	.
4r	8.r	.	4B^/)	.	.
.	(16bb\	p	.	.	.
4r	8b\)	.	(<16e/LL	.	p
.	.	.	16g#X/	.	.
.	8r	.	16b/	.	.
.	.	.	16ee/JJ	.	.
=50	=50	=50	=50	=50	=50
!	!	!	!LO:N:n=2:vis=2	!	!
4B 4E\	4g#X 4e/	.	8eeeeL 8raa 8reeyy\)	.	.
.	.	.	16r	.	.
!	!	!	!LO:N:n=2:vis=2	!	!
.	.	.	16eeeeJk 16raa 16reeyy\	.	.
!	!	!	!LO:N:n=2:vis=2	!	!
4r	8.r	.	[4eee [4ree 4reyy\	.	.
.	(16eee\	.	.	.	.
!	!	!	!LO:N:n=2:vis=2	!	!
4r	8ee\)	.	8eee] 8ree\] 8reyy	.	.
.	8r	.	8r	.	.
=51	=51	=51	=51	=51	=51
.	.	.	8qf#/	.	.
!LO:SIC:s=2.FF#	!LO:SIC:s=2.f#< 2.e< 2.F#<	!	!	!	!
2.FF#X\	2.f#< 2.e#X< 2.F#X</	.	8.ff#L 8.ee\	.	.
.	.	.	16ff#Jk 16ee\	.	.
.	.	.	(8ggnL 8ee\	.	.
.	.	.	8gg#X 8ee\)	.	.
.	.	.	8aa 8ee\	.	.
.	.	.	8aa#XJ 8ee\	.	.
=52	=52	=52	=52	=52	=52
4F# 4BB\	4f#X< 4d#X< 4B</	.	(2bb 2dd#Xt\	.	.
!	!LO:SIC:s=4r<	!	!	!	!
4r	4ryy	.	.	.	.
!	!	!	!	!	!LO:MO:mod=!LO&colon;HP&colon;ed=brack
!	!	!	!	!	!null
!	!LO:SIC:s=4r<	!	!	!	!LO:MO:null:mod=<
4r	4ryy	.	8aa#X\L)	.	.
!	!	!	!	!	!LO:MO:null:mod=[[
.	.	.	(8bb\J	.	.
!!LO:LB:g=original
=53	=53	=53	=53	=53	=53
4BB 4FF#X 4BBB/	4b 4d#X 4A/	ff	8bbbo\L)	.	ff
.	.	.	16r	.	.
.	.	.	(16bbb\Jk	.	.
4r	8.r	.	[4bb\	.	.
.	16bb 16b\	.	.	.	.
8B\	4r	.	8bb\])	.	.
8r	.	.	8r	.	.
=54	=54	=54	=54	=54	=54
4E 4BB 4EE/	4g#X 4e 4B 4G#X/	.	8gg#XL 8b 8e/	.	.
.	.	.	16r	.	.
.	.	.	(16gg#Jk 16b/	.	.
4r	8.r	.	8b 8e+</)	.	.
.	.	.	8r	.	.
.	16ee 16e/	.	.	.	.
8E\	4r	.	4r	.	.
8r	.	.	.	.	.
=55	=55	=55	=55	=55	=55
8A 8E 8AA\	8cc#X 8a 8e 8c#X/	.	4ee 4cc#X 4e 4A/	.	.
8r	8r	.	.	.	.
*clefG2	*	*	*	*	*
.	.	.	(>8qaa/	.	.
2a 2e 2c#X/	2eee 2aa 2ee\	.	8eeeeo\)	.	.
.	.	.	8r	.	.
.	.	.	8.ddd#X\L	.	.
.	.	.	(16ccc#X\Jk	.	.
*clefF4	*	*	*	*	*
=56	=56	=56	=56	=56	=56
*^	*	*	*	*	*
.	.	.	.	16qqbb/LL	.	.
.	.	.	.	16qqccc#X/JJ	.	.
8.B/L	[2E\	8.gg#XL 8.g#X\	.	8bb\L)	.	.
.	.	.	.	16r	.	.
16A#X/Jk	.	16ff##XJk 16f##X\	.	16aa#Xu\Jk	.	.
[4B/	.	[4gg# [4g#\	.	8bbv\	.	.
.	.	.	.	8r	.	.
8B/]	8E\]	8gg#] 8g#\]	.	4gg#X\	.	.
8r	8r	8r	.	.	.	.
*v	*v	*	*	*	*	*
=57	=57	=57	=57	=57	=57
4A 4BB\	4b 4d#X/	p	8bbL 8dd#X 8f# 8Bv/	.	.
.	.	.	16r	.	.
.	.	.	(16bbJk 16dd#u/	.	.
4r	8.r	.	4B/)	.	.
.	(16bb\	.	.	.	.
4r	8b\)	.	(16e/LL	.	p
.	.	.	16g#X/	.	.
.	8r	.	16b/	.	.
.	.	.	16ee/JJ	.	.
=58	=58	=58	=58	=58	=58
!	!	!	!LO:N:n=2:vis=2	!	!
4B 4G#X 4E\	4g#X 4e/	.	8eeeeL 8raa 8reeyy\)	.	.
.	.	.	16r	.	.
!	!	!	!LO:N:n=2:vis=2	!	!
.	.	.	(16eeeeu<Jk 16raa 16reeyy\	.	.
!	!	!	!LO:N:n=2:vis=2	!	!
4r	8.r	.	[4eee [4ree 4reyy\	.	.
.	(16eee\	.	.	.	.
!	!	!	!LO:N:n=2:vis=2	!	!
4r	8ee\)	.	8eee] 8ee] 8reyy\)	.	.
.	8r	.	8r	.	.
!!LO:LB:g=original
=59	=59	=59	=59	=59	=59
2.A#X 2.F#\	2.f# 2.e/	.	8ff#L 8ee 8f#\	.	.
.	.	.	16r	.	.
.	.	.	16ff#Jk 16ee\	.	.
.	.	.	(8ggnL 8ee\	.	.
.	.	.	8gg#X 8ee\)	.	.
.	.	.	8aa 8ee\	.	.
.	.	.	8aa#XJ 8ee\	.	.
=60	=60	=60	=60	=60	=60
2B 2F# 2BB\	2f# 2d#X/	.	8bbL 8dd#Xv\	.	.
.	.	.	16r	.	.
.	.	.	(16ff#Jk 16dd#\	.	.
.	.	.	4.gg#X^ 4.dd#\	.	.
4B 4F# 4BB\	4g 4d#/	.	.	.	.
.	.	.	8ff# 8dd#\)	.	.
=61	=61	=61	=61	=61	=61
*	*^	*	*	*	*
2A#X 2F# 2BB\	8f#/L	2e\	.	8ff#L 8ee\	.	.
.	16r	.	.	16r	.	.
.	16f#/Jk	.	.	16ff#Jk 16eeo<\	.	.
.	(8gn/L	.	.	4ddd#X 4ee\	.	.
.	8g#X/	.	.	.	.	.
4A# 4F# 4BB\	8a/	4e\	.	4ccc#X 4ee\	.	.
.	8a#X/J)	.	.	.	.	.
=62	=62	=62	=62	=62	=62	=62
2B 2F# 2BB\	4b/	4d#X\	.	8bbL 8dd#X\	.	.
.	.	.	.	16r	.	.
.	.	.	.	(16ff#Jk 16dd#u\	.	.
.	4r	4ryy	.	4.gg#X 4.dd#^\	.	.
4B 4F# 4BB\	4f#/	4d#\	.	.	.	.
.	.	.	.	8ff# 8dd#\)	.	.
=63	=63	=63	=63	=63	=63	=63
!	!	!	!LO:MO:mod=!null:null	!	!	!
!	!	!	!LO:HP:a	!	!	!
2A#X 2F# 2BB\	8f#/L	2e\	<	8ff#L 8ee\	.	.
.	16r	.	.	16r	.	.
.	16f#/Jk	.	.	16ff#Jk 16ee\	.	.
.	8gn/L	.	.	4ddd#X 4ee\	.	.
.	8g#X/	.	.	.	.	.
4A# 4F# 4BB\	8a/	4e\	.	4ccc#X 4ee\	.	.
.	8a#X/J	.	[	.	.	.
*	*v	*v	*	*	*	*
=64	=64	=64	=64	=64	=64
4B 4F# 4BB\	4b 4d#X/	.	8bbL 8dd#X\	.	.
.	.	.	16r	.	.
.	.	.	16ff#\Jk	3	.
4r	4r	.	4ddd#X 4ff#\	.	.
4a#X> 4f#> 4B>\	[4fff# [>4ff#/	.	4ccc#X 4ee\	.	.
!!LO:LB:g=original
=65	=65	=65	=65	=65	=65
4b> 4f#> 4B>\	4fff#] 4ff#/]	.	8bbL 8dd#X\	.	.
.	.	.	16r	.	.
.	.	.	16ff#\Jk	.	.
4r	4r	.	(4ddd#X 4ff#\	.	.
4A#X 4F# 4BB\	[4ff# [4f#/	.	4ccc#X 4ee\)	.	.
=66	=66	=66	=66	=66	=66
4B 4F# 4BB\	4ff#/] 4f#/]	.	(8.bbL 8.dd#X\	.	.
.	.	.	16ccc#XJk 16dd#\)	.	.
4r	4r	.	8bb 8dd#\	.	.
.	.	.	8r	.	.
(4B (4E\	[4e/ 4dn/	.	8ff#L 8ddn^\	.	.
.	.	.	8gg#X\J	.	.
=67	=67	=67	=67	=67	=67
8A 8AA\))	8a 8e] 8c#X/	.	(8.aaL 8.cc#X\	.	.
8r	8r	.	.	.	.
.	.	.	16bbJk 16cc#\)	.	.
4r	4r	.	8aa 8cc#\	.	.
.	.	.	8r	.	.
4A 4D\	4d 4cn/	.	8eeL 8ccn 8d^u\	.	.
.	.	.	8ff#\J	.	.
=68	=68	=68	=68	=68	=68
!	!	!	!LO:TUP:a:problem:klamra łukowa	!	!
8G 8D 8GG\	8g 8d 8B/	.	12ggnL 12b 12d 12G^\	.	.
.	.	.	12aa 12b\	.	.
8r	8r	.	.	.	.
.	.	.	12bbJ 12b\	.	.
2A 2D 2GG^\	2dd 2f# 2c^/	ff	4aa 4cc\	.	.
.	.	.	(8eeL 8cc^\	.	.
.	.	.	8ff#J 8cc\)	.	.
=69	=69	=69	=69	=69	=69
!	!	!	!LO:TUP:a:problem:klamra łukowa	!	!
8G 8D 8GG\	8g 8d 8B/	.	12ggL 12b 12d 12G\	.	.
.	.	.	12aa 12b\	.	.
8r	8r	.	.	.	.
.	.	.	12bbJ 12b\	.	.
2A 2D 2GG^\	2dd 2f# 2c^/	.	4aa 4cc\	.	.
.	.	.	8eeL 8cc^\	.	.
.	.	.	8ff#J 8cc\	.	.
=70	=70	=70	=70	=70	=70
!	!	!	!LO:TUP:a:problem:klamra łukowa	!	!
8G 8D 8GG\	8g 8d 8B/	.	12ggL 12b 12d 12G\	.	.
.	.	.	12aa 12b\	.	.
8r	8r	.	.	.	.
.	.	.	12bbJ 12b\	.	.
2A 2D 2GG^\	2dd 2f# 2c^/	.	4aa 4cc\	.	.
.	.	.	8eeL 8cc^\	.	.
.	.	.	8ff#J 8cc\	.	.
!!LO:PB:g=original
=71	=71	=71	=71	=71	=71
!	!	!	!LO:TUP:a:problem:klamra łukowa	!	!
[2G [>2D [2GG/	[2g [>2d [2B/	.	12ggL 12b 12d 12G\	.	.
.	.	.	12aa 12b\	.	.
.	.	.	12bbJ 12b\	.	.
!	!	!	!LO:MO:mod=!LO&colon;TX&colon;a&colon;i&colon;t=vibr.	!	!
!	!	!	!LO:TX:a:t=vibr.	!	!
.	.	.	2gg 2b^\	.	.
8G] 8D] 8GG/]	8g] 8d] 8B/]	.	.	.	.
8r	8r	.	.	.	.
=72	=72	=72	=72	=72	=72
!	!	!	!LO:TUP:a:problem:klamra łukowa	!	!LO:DY:rj
8D 8GG\	8B< 8G</	p	(12dL 12G/	.	p
.	.	.	12d 12A/	.	.
8r	8r<<	.	.	.	.
.	.	.	12dJ 12B/	.	.
2D 2GG\	2c< 2F#</	.	4e [[4A/	.	.
.	.	.	8.d^>/L 8.d	.	.
.	.	.	16dJk 16A/]])	.	.
=73	=73	=73	=73	=73	=73
!	!	!	!LO:TUP:a:problem:klamra łukowa	!	!
8D 8GG\	8B< 8G</	.	(12dL 12G/	.	.
.	.	.	12d 12A/	.	.
8r	8r<<	.	.	.	.
.	.	.	12dJ 12B/	.	.
2D 2GG\	2c< 2F#</	.	4e [[4A/	.	.
.	.	.	8.d^>/L 8.d	.	.
.	.	.	16dJk 16A/]])	.	.
=74	=74	=74	=74	=74	=74
!	!	!	!LO:TUP:a:problem:klamra łukowa	!	!
8D 8GG\	8B< 8G</	.	(12dL 12G/	.	.
.	.	.	12d 12A/	.	.
8r	8r<<	.	.	.	.
.	.	.	12dJ 12B/	.	.
2D 2GG\	2c< 2F#</	.	4e [[4A/	.	.
.	.	.	8.d^>/L 8.d	.	.
.	.	.	16dJk 16A/]])	.	.
=75	=75	=75	=75	=75	=75
!	!	!	!LO:TUP:a:problem:klamra łukowa	!	!
8D 8GG\	8B< 8G</	.	(12dL 12G/	.	.
.	.	.	12d 12A/	.	.
8r	8r	.	.	.	.
.	.	.	12dJ 12B/	.	.
[2D\	[2d [2A/	.	2d 2A/)	.	.
=76	=76	=76	=76	=76	=76
!	!	!	!LO:TUP:a:problem:klamra łukowa	!	!
8D\]	8d] 8A/]	.	(12aL 12d^>/	.	<
.	.	.	12e/	.	.
8r	8r	.	.	.	.
.	.	.	12f#/J	.	.
[2A [2D\	[2a [2d/	.	2d/)	.	.
!!LO:LB:g=original
=77	=77	=77	=77	=77	=77
!	!	!	!LO:TUP:a:problem:klamra łukowa	!	!
8A] 8D\]	8a] 8d/]	.	(<<12ddL 12d^\	.	.
.	.	.	12ee\	.	.
8r	8r	.	.	.	.
.	.	.	12ff#\J	.	.
*clefG2	*	*	*	*	*
[2a [2d/	[2aa [2dd\	.	2dd\)	.	[
=78	=78	=78	=78	=78	=78
!	!	!	!LO:TUP:a:problem:klamra łukowa	!	!
8a] 8d/]	8aa] 8dd\]	.	12ddd\L	.	.
.	.	.	12eee\	.	.
8r	8r	.	.	.	.
.	.	.	12fff#\J	.	.
[2aa [2dd\	[2aaa [2ddd\	.	2ddd^\	.	.
=79	=79	=79	=79	=79	=79
.	.	.	(8qccc#X/	.	.
4aa] 4dd\]	4aaa] 4ddd\]	.	4ddd\)	.	f
.	.	.	(8qccc#/	.	.
4r	4r	.	4ddd\)	.	.
.	.	.	(8qccc#/	.	.
4r	4r	.	4ddd\)	.	.
!LO:MO:mod=*null:null	!	!	!	!	!
*clefF4	*	*	*	*	*
=80	=80	=80	=80	=80	=80
.	.	.	(8qccc#X/	.	.
2.r	2.r	.	4ddd\)	.	.
.	.	.	(8qccc#/	.	.
.	.	.	4ddd\)	.	.
.	.	.	(8qccc#/	.	.
.	.	.	8ddd\L)	.	.
.	.	.	8ccc#y\J	.	.
=81	=81	=81	=81	=81	=81
.	.	.	(8qccc#X/	.	.
2.r	2.r	.	[2.dddvT\)	.	ff
=82	=82	=82	=82	=82	=82
*	*	*	*	*	*^
2.r	2.r	.	2.dddT\]	.	>	f
=83	=83	=83	=83	=83	=83	=83
2.r	2.r	.	([2.dddT\	.	.	mf
=84	=84	=84	=84	=84	=84	=84
2.r;	2.r;	.	4.ddd\]	.	.	p
.	.	.	8ccc#X\	.	.	.
!	!	!	!LO:MO:mod=!LO&colon;TX&colon;a&colon;i&colon;t=glissez.	!	!	!
!	!	!	!LO:TX:a:B:t=glissez.	!	!	!
.	.	.	4ddd;\	.	]	.
!LO:MO:mod=*clefF4	!	!	!	!	!	!
*null	*	*	*	*	*	*
*	*	*	*	*	*v	*v
!!LO:LB:g=original
=85	=85	=85	=85	=85	=85
!	!	!	!LO:TUP:a:problem:klamra łukowa	!	!
2D [2GG/	2.d 2.c/	p	12aa\L	.	pp
.	.	.	12bb\	.	.
.	.	.	12cccn\J	.	.
.	.	.	4aa+<\)	.	.
4D 4GG'/]	.	.	8.ee\L	.	.
.	.	.	16ff#\Jk	.	.
=86	=86	=86	=86	=86	=86
.	.	.	(16qqff#/LL	.	.
.	.	.	16qqaa/JJ)	.	.
2D [2GG/	2.d 2.B/	.	8.gg\L	.	.
.	.	.	16ff#\Jk	.	.
.	.	.	(4gg\	.	.
4D 4GG'/]	.	.	4dd\)	.	.
=87	=87	=87	=87	=87	=87
.	.	.	(>>(>8qa/	.	.
2D [2GG/	2.d 2.c/	.	12aa\L)	.	.
.	.	.	12bb\	.	.
.	.	.	12ccc\J	.	.
.	.	.	8aa+<\)	.	.
.	.	.	8r	.	.
4D 4GG'/]	.	.	8.ee\L	.	.
.	.	.	16ff#\Jk	.	.
=88	=88	=88	=88	=88	=88
.	.	.	(16qqff#/LL	.	.
.	.	.	16qqaa/JJ)	.	.
2D [2GG/	[2d [2B/	.	8.gg\L	.	.
.	.	.	16ff#\Jk	.	.
.	.	.	2gg^\	.	.
4D 4GG'/]	8d] 8B/]	.	.	.	.
.	8r	.	.	.	.
=89	=89	=89	=89	=89	=89
*^	*	*	*	*	*
.	.	.	.	(>>(>8qa/	.	.
2.A/	(2C\	(4a 4e/	.	12aa\L)	.	.
.	.	.	.	12bb\	.	.
.	.	.	.	12ccc\J	.	.
.	.	8ee\)	.	8aa+<\)	.	.
.	.	8r	.	8r	.	.
.	4D\)	4d 4c/	.	8.ee\L	.	.
.	.	.	.	16ff#\Jk	.	.
=90	=90	=90	=90	=90	=90	=90
.	.	.	.	(16qqff#/LL	.	.
.	.	.	.	16qqaa/JJ)	.	.
2.G/	2G\	[2d [2B/	.	8.gg\L	.	.
.	.	.	.	16ff#\Jk	.	.
.	.	.	.	(4gg\	.	.
.	(8qC#X/	.	.	.	.	.
.	4D\)	8d] 8B/]	.	4dd\)	.	.
.	.	8r	.	.	.	.
!!LO:LB:g=original
=91	=91	=91	=91	=91	=91	=91
.	.	.	.	(>>(>8qa/	.	.
2.A/	(2Cn\	(4a 4e/	.	12aa\L)	.	.
.	.	.	.	12bb\	.	.
.	.	.	.	12ccc\J	.	.
.	.	8gg\)	.	8aa+<\)	.	.
.	.	8r	.	8r	.	.
.	4D\)	4d 4c/	.	8.ee\L	.	.
.	.	.	.	16ff#\Jk	.	.
*v	*v	*	*	*	*	*
=92	=92	=92	=92	=92	=92
.	.	.	(16qqff#/LL	.	.
.	.	.	16qqaa/JJ)	.	.
4G 4D 4GG\	4g 4d 4B/	.	8.gg\L	.	.
.	.	.	16ff#\Jk	.	.
4r	8.r	.	2gg\	.	.
!	!	!LO:MO:mod=.	!	!	!
.	16gg 16g\	<	.	.	.
8G 8GG\	4r	.	.	.	.
8r	.	.	.	.	.
=93	=93	=93	=93	=93	=93
!	!	!LO:MO:null:mod=<	!LO:TX:b:t=cre_scendo:problem:dynamics with extention lines:mod=	!	!LO:HP:t=cre_scendo
4G 4D 4GG\	4g 4d 4B/	.	(8.ggL 8.b 8.d 8.G/	.	<
.	.	.	16ff#/Jk)	.	.
4r	8.r	.	2gg\	.	.
.	16gg 16dd 16b 16g\	.	.	.	.
8G 8D 8GG\	4r	.	.	.	.
8r	.	.	.	.	.
=94	=94	=94	=94	=94	=94
4r	4r	.	(8.bbL 8.b 8.d 8.G\	.	.
.	.	.	16aa#XJk 16a#X\)	.	.
4r	8.r	.	2bb 2b\	.	.
.	16bb 16gg 16dd 16b\	.	.	.	[
8D 8DD/	4r	[	.	.	.
8r	.	.	.	.	.
=95	=95	=95	=95	=95	=95
4r	4r	.	(8.dddL 8.dd 8.d 8.G\	.	.
.	.	.	16ccc#XJk 16cc#X\)	.	.
4r	4r	.	2ddd 2dd\	.	.
4BB 4BBB/	4ddd 4bb 4gg 4dd\	ff	.	.	.
=96	=96	=96	=96	=96	=96
!	!	!	!	!	!LO:DY:rj
8GG 8GGG/	8ggg 8ddd 8bb 8gg\	.	8gggL 8gg 8d 8G\	.	ff
8r	8r	.	16r	.	.
.	.	.	(16gggJk 16gg\	.	.
*	*8va	*	*	*	*
8GG 8GGG/	8gggg 8dddd 8bbb 8ggg\	.	8d 8G/)	.	.
*	*X8va	*	*	*	*
8r	8r	.	8r	.	.
!LO:TX:b:t=Fine.:mod=	!	!	!	!	!
4r;	4r;	.	4r;	.	.
==	==	==	==	==	==
*-	*-	*-	*-	*-	*-
!!!system-decoration: s1{(s2,s3)}
!!!RDF**kern: > = above
!!!RDF**kern: < = below
!!!RDF**kern: + = l.h. pizz.
!!!filter-modern: shed -k -e "s/([^a-gA-Gn#X-])[<>]/$1/g" | shed -e "s/^(X?)tuplet$/$1TUPLET/I" | shed -k -e "s/:TUP:/:tup:/L" | shed -e "s/:rj/:RJ/L" | sic -sq | modori -m | autostem -r | tie -s
!!!ENC: Marta Opryszak
!!!END: 2022-05-10
!!!ENC: Marta Lawrence
!!!END: 2022-05-20
!!!ENC-modern: Andrzej Kubiczek
!!!END-modern: 2022-07-20
!!!YEC: Copyright 2022 Narodowy Instytut Fryderyka Chopina (https://polishscores.org)
!!!YEM: Licence CC BY 4.0 (https://creativecommons.org/licenses/by/4.0)
